X:269
T:Now Thank We All Our God
%%stretchlast false
M:none
L:1/4
K:Eb clef=C1
"^iii"[Gb]2 [Gb]3/2 [Gb]/ | "^vi+"[Ac'] [Ac'] "^iii"[Gb]3 | "^iii¹"[Bg] "^vi+"[ca] "^iii¹"[Bg] | "^♯iii"[Af] "^I¹"[Ge] "^vii¹"[Fd]2 | "^I¹"[Ge]2 "^iii"[Gb]2 | [Gb]3/2 [Gb]/ "^vi+"[Ac'] [Ac'] | "^iii"[Gb]3 "^iii¹"[Bg] | "^vi+"[ca] "^iii¹"[Bg] "^♯iii"[Af] "^I¹"[Ge] | "^vii¹"[Fd]2 "^I¹"[Ge]2 | "^v"[Bf]2 [Bf]3/2 [Bf]/ | "^iii¹"[Bg] [Bg] "^v"[Bf]3 | [Bf] "^iii¹"[Bg] "^v"[Fb] | "^iii"[Gb] "^II"[F=a] "^v"[Fb] [Fb]2 | [Fb] "^vi"[Gc'] "^♯iii"[Ab] | "^♯iii¹"[Ba] "^vi"[cg] "^♯iii¹"[Ba] "^vi+"[ca] | "^vi"[cg] "^iii¹"[Bg] "^v"[Bf] "^i¹"[Ae] | "^I¹"[Ge] "^vii¹"[Fd] "^ii7"[Fe] "^I¹"[Ge]4 |]
